X:721
T:Eileen O'Riordan's
O:ireland
S:IrTrad; Chris and Caitlin, 6/97
R:Slide
M:12/8
L:1/8
K:EDor
E2 A ABA E2 A ABA|E2 A ABA G2 A F2 A|
E2 A ABA E2 A ABd|1 efe dcB A3 AGF:|2 efe dcB A3 ABd||
e3 efe d3 dcd|e2 A ABA G2 A F2 A|
E2 A ABA E2 A ABd|1 efe dcB A3 ABd :|2 efe dcB A3 AGF||
